icons/close.svg

<svg enable-background="new 0 0 512 512" height="512" viewBox="0 0 512 512" width="512" xmlns="http://www.w3.org/2000/svg"><g fill="#f44336"><path d="m256 0c-141.492 0-256 114.497-256 256 0 141.493 114.497 256 256 256 141.492 0 256-114.497 256-256 0-141.493-114.497-256-256-256zm0 472c-119.384 0-216-96.607-216-216 0-119.385 96.607-216 216-216 119.384 0 216 96.607 216 216 0 119.385-96.607 216-216 216z"/><path d="m343.586 315.302-59.302-59.302 59.302-59.302c7.81-7.81 7.811-20.473.001-28.284-7.812-7.811-20.475-7.81-28.284 0l-59.303 59.302-59.303-59.302c-7.809-7.811-20.474-7.811-28.284 0s-7.81 20.474.001 28.284l59.302 59.302-59.302 59.302c-7.811 7.811-7.812 20.474-.001 28.284 7.813 7.812 20.476 7.809 28.284 0l59.303-59.302 59.303 59.302c7.808 7.81 20.473 7.811 28.284 0s7.81-20.474-.001-28.284z"/></g></svg>

<?xml version="1.0"?>
<svg xmlns="http://www.w3.org/2000/svg" xmlns:xlink="http://www.w3.org/1999/xlink" version="1.1" id="Capa_1" x="0px" y="0px" viewBox="0 0 512 512" style="enable-background:new 0 0 512 512;" xml:space="preserve" width="512px" height="512px"><g><g>
	<g>
		<path d="M256,0C114.508,0,0,114.497,0,256c0,141.493,114.497,256,256,256c141.492,0,256-114.497,256-256    C512,114.507,397.503,0,256,0z M256,472c-119.384,0-216-96.607-216-216c0-119.385,96.607-216,216-216    c119.384,0,216,96.607,216,216C472,375.385,375.393,472,256,472z" data-original="#000000" class="active-path" data-old_color="#000000" fill="#F44336"/>
	</g>
</g><g>
	<g>
		<path d="M343.586,315.302L284.284,256l59.302-59.302c7.81-7.81,7.811-20.473,0.001-28.284c-7.812-7.811-20.475-7.81-28.284,0    L256,227.716l-59.303-59.302c-7.809-7.811-20.474-7.811-28.284,0c-7.81,7.811-7.81,20.474,0.001,28.284L227.716,256    l-59.302,59.302c-7.811,7.811-7.812,20.474-0.001,28.284c7.813,7.812,20.476,7.809,28.284,0L256,284.284l59.303,59.302    c7.808,7.81,20.473,7.811,28.284,0C351.398,335.775,351.397,323.112,343.586,315.302z" data-original="#000000" class="active-path" data-old_color="#000000" fill="#F44336"/>
	</g>
</g></g> </svg>
